<?xml version="1.0" encoding="UTF-8"?>
<map version="1.10" tiledversion="1.12.2-2-geb83ddb9" orientation="orthogonal" renderorder="left-down" width="20" height="16" tilewidth="18" tileheight="18" infinite="0" nextlayerid="3" nextobjectid="1">
 <properties>
  <property name="storm" value="150"/>
 </properties>
 <tileset firstgid="1" source="tilemap.tsx"/>
 <layer id="1" name="chars" width="20" height="16">
  <data encoding="csv">
30,0,30,0,25,26,0,0,0,0,0,0,0,0,0,0,30,0,30,0,
31,0,31,0,0,0,0,66,0,0,0,66,0,0,133,0,31,0,31,0,
31,0,31,0,0,0,0,0,0,0,0,0,0,0,0,0,31,0,31,0,
31,0,31,0,0,0,0,0,66,29,66,0,0,0,0,0,31,0,31,0,
0,0,31,0,0,0,0,0,0,0,0,0,0,0,0,0,0,0,31,0,
30,0,0,0,0,0,0,0,0,0,0,0,0,0,0,0,30,0,0,0,
30,0,30,0,0,0,0,0,0,0,0,0,0,0,0,0,30,0,30,0,
30,0,30,0,0,0,0,0,0,0,0,0,0,0,0,0,30,0,30,0,
0,0,30,0,0,0,0,0,0,0,0,0,0,0,0,0,0,0,30,0,
0,0,31,0,0,0,0,0,0,0,0,0,0,0,0,0,0,0,31,0,
0,0,31,0,0,66,0,0,0,0,0,0,0,66,0,0,66,0,31,0,
0,0,0,0,0,0,0,0,0,0,0,0,0,0,0,0,0,0,0,0,
66,0,31,0,0,0,0,0,0,0,0,0,0,0,0,0,0,0,31,0,
0,0,30,0,0,5,0,0,0,0,0,0,0,0,30,0,0,0,30,0,
0,0,31,0,0,0,0,0,0,0,0,0,0,0,0,0,0,0,31,0,
69,69,0,69,69,69,69,69,0,69,0,69,69,69,69,69,69,69,0,69
</data>
 </layer>
 <layer id="2" name="tiles" width="20" height="16">
  <data encoding="csv">
0,0,0,0,0,0,0,0,0,9,0,0,0,0,0,0,0,0,0,0,
0,0,0,0,0,0,0,0,0,9,0,0,0,0,0,0,0,0,0,0,
0,0,0,0,62,63,63,63,63,63,63,63,63,63,64,0,0,0,0,0,
0,0,0,0,82,0,0,0,0,0,0,0,0,0,84,0,0,0,0,0,
47,0,0,0,82,0,0,12,12,12,12,12,0,0,84,0,47,0,0,0,
0,0,47,0,82,0,12,12,12,12,12,12,12,0,84,0,0,0,47,0,
0,0,0,0,82,0,12,12,12,12,12,12,12,0,84,0,0,0,0,0,
0,0,0,0,82,46,12,12,12,12,12,12,12,46,84,0,0,0,0,0,
47,0,0,0,82,0,12,12,12,12,12,12,12,0,84,0,47,0,0,0,
0,0,0,0,82,0,0,12,12,12,12,12,0,0,84,0,0,0,0,0,
0,0,0,0,82,0,0,0,0,0,0,0,0,0,84,0,0,0,0,0,
0,0,47,0,102,103,103,11,11,11,11,11,103,103,104,0,0,0,47,0,
0,0,0,0,0,0,0,0,0,0,0,0,0,9,9,9,0,0,0,0,
0,0,0,0,0,0,0,0,0,0,0,0,0,9,0,9,0,0,0,0,
0,0,0,0,49,50,51,0,0,0,0,0,0,49,50,51,0,0,0,0,
0,0,47,0,0,0,0,0,46,0,47,0,0,0,0,0,0,0,47,0
</data>
 </layer>
</map>
