<?xml version="1.0" encoding="UTF-8"?>
<map version="1.10" tiledversion="1.12.2-2-geb83ddb9" orientation="orthogonal" renderorder="left-down" width="60" height="10" tilewidth="18" tileheight="18" infinite="0" nextlayerid="3" nextobjectid="1">
 <properties>
  <property name="storm" value="50"/>
 </properties>
 <tileset firstgid="1" source="tilemap.tsx"/>
 <layer id="1" name="chars" width="60" height="10">
  <data encoding="csv">
0,0,0,0,0,0,0,0,0,0,0,0,70,0,0,0,0,0,0,35,30,31,18,19,19,19,20,0,0,0,30,30,30,30,30,30,0,0,6,30,31,0,0,0,0,0,0,0,0,0,0,0,0,0,0,0,0,0,31,31,
0,25,26,29,0,0,0,0,0,0,0,0,90,0,0,0,0,0,0,55,31,18,39,39,39,39,40,0,0,0,18,19,19,19,20,30,0,0,30,6,31,0,0,0,0,0,0,0,0,0,0,0,0,0,0,0,0,31,0,31,
0,0,0,0,0,0,134,128,0,0,0,0,110,0,0,0,0,6,0,76,66,38,39,39,39,39,39,20,0,18,39,39,39,39,39,20,0,0,30,31,6,0,0,0,0,30,0,0,0,0,0,30,0,0,0,0,31,31,0,0,
0,0,0,0,0,0,0,0,0,0,0,0,0,0,0,0,0,0,0,0,0,38,39,40,98,38,39,40,31,38,39,39,39,39,39,40,30,0,31,30,6,0,0,35,0,0,30,0,35,0,30,0,0,35,0,31,0,31,0,0,
30,31,0,0,30,31,0,0,30,31,0,0,30,31,0,0,0,0,0,0,0,58,59,60,97,58,59,60,30,58,59,39,39,39,59,60,30,0,6,31,30,0,0,55,0,30,0,0,55,0,0,30,0,55,0,31,0,0,0,0,
0,0,30,31,0,0,30,31,0,0,30,31,0,0,30,31,0,0,0,0,0,0,119,120,118,100,0,0,0,0,0,58,98,60,0,0,0,0,0,0,0,0,0,55,0,0,0,0,55,0,0,0,0,55,0,31,0,0,0,0,
0,0,0,0,0,0,0,0,0,0,0,0,0,0,0,0,0,0,0,109,0,0,0,0,139,140,0,5,0,0,0,0,139,140,0,0,0,0,0,0,0,0,0,55,0,0,0,0,55,0,0,0,0,55,0,0,0,0,134,0,
0,0,30,0,0,0,0,0,0,30,0,0,0,0,30,0,0,0,109,129,0,0,0,99,137,0,0,0,0,0,0,0,139,100,0,0,0,109,0,0,0,0,0,55,0,0,0,0,55,0,0,0,0,55,0,0,0,0,0,0,
0,89,127,88,88,0,0,0,0,127,0,0,0,0,127,0,0,0,129,129,0,86,87,127,138,0,0,30,0,86,0,127,138,0,0,134,0,129,0,0,0,0,0,75,0,0,0,0,75,0,0,0,0,75,0,0,0,0,0,0,
0,0,0,0,0,0,54,54,0,0,0,34,34,0,0,0,34,34,0,0,0,0,0,0,0,0,0,0,0,0,0,0,0,0,0,0,0,0,0,0,0,54,54,54,54,54,54,54,54,54,54,54,54,54,54,54,54,54,54,54
</data>
 </layer>
 <layer id="2" name="tiles" width="60" height="10">
  <data encoding="csv">
0,0,0,0,0,0,0,0,0,0,0,0,0,0,0,0,0,0,0,0,0,0,0,0,0,0,0,0,0,0,0,0,0,0,0,0,0,0,0,0,0,0,0,94,111,112,113,115,96,114,111,112,113,95,0,0,0,0,0,0,
0,0,0,0,0,0,0,0,0,0,0,0,0,0,0,0,0,0,0,0,0,0,0,0,0,0,0,0,0,0,0,0,0,0,0,0,0,0,0,0,0,0,0,116,0,0,0,0,116,0,0,0,0,116,0,0,0,0,0,0,
0,105,106,107,0,0,0,0,0,0,0,0,0,0,0,0,0,0,0,0,0,0,0,0,0,0,0,0,0,0,0,0,0,0,0,0,0,0,0,0,0,0,0,136,0,0,0,0,136,0,0,0,0,136,0,0,0,0,0,132,
9,9,9,9,9,9,2,4,12,12,12,2,3,4,9,9,9,2,4,96,0,0,0,0,0,0,0,0,0,0,0,0,0,0,0,0,0,0,0,0,0,0,0,0,0,0,0,0,0,0,0,0,0,0,0,0,0,0,0,0,
0,0,0,0,0,0,0,0,0,0,0,0,0,0,0,0,9,0,114,115,0,0,0,0,0,0,0,0,0,0,0,0,0,0,0,0,0,0,0,0,0,0,0,0,0,0,0,0,0,0,0,0,0,0,0,0,0,132,0,0,
0,0,0,0,0,0,0,0,0,0,0,0,0,0,0,0,9,0,0,0,0,0,0,0,0,0,0,0,0,0,0,0,0,0,0,0,0,0,2,3,4,0,0,0,0,0,0,0,0,0,0,0,0,0,0,0,0,0,0,0,
0,0,12,2,3,4,9,9,2,3,4,9,9,2,3,4,9,0,0,0,0,0,0,0,0,0,0,0,0,0,0,0,0,0,0,0,0,0,0,0,0,0,0,0,0,49,51,0,0,0,49,51,0,0,0,132,0,0,0,0,
0,0,0,0,0,0,0,0,0,0,0,0,0,0,0,0,0,0,0,0,0,0,0,0,0,0,0,0,0,0,0,0,0,0,0,0,0,0,0,0,0,0,0,0,0,0,0,0,0,0,0,0,0,0,0,0,0,0,47,0,
0,0,0,0,0,0,0,0,0,0,0,0,0,0,0,0,0,0,0,0,0,0,0,0,0,0,0,0,0,0,0,0,0,0,0,0,0,0,0,0,0,0,0,0,0,0,0,0,0,0,0,0,0,0,0,0,0,0,0,0,
22,23,23,23,23,24,0,0,22,23,24,0,0,22,23,24,0,0,22,23,23,23,23,23,23,23,23,23,23,23,23,23,23,23,23,23,23,23,23,23,24,0,0,0,0,0,0,0,0,0,0,0,0,0,0,0,0,0,0,0
</data>
 </layer>
</map>
