<?xml version="1.0" encoding="UTF-8"?>
<map version="1.10" tiledversion="1.12.2-2-geb83ddb9" orientation="orthogonal" renderorder="left-down" width="31" height="31" tilewidth="18" tileheight="18" infinite="0" nextlayerid="3" nextobjectid="1">
 <properties>
  <property name="storm" value="60"/>
 </properties>
 <tileset firstgid="1" source="tilemap.tsx"/>
 <layer id="1" name="chars" width="31" height="31">
  <data encoding="csv">
70,31,0,0,0,0,0,0,0,0,0,0,0,0,0,0,0,0,0,0,0,0,0,0,0,0,0,0,0,0,0,
90,30,0,0,0,0,0,0,0,0,0,0,0,0,0,0,0,0,0,0,0,0,0,0,0,0,0,0,0,0,0,
90,31,0,0,128,30,31,0,0,0,0,0,0,0,0,0,0,0,133,0,6,0,0,0,0,0,0,0,0,31,0,
90,30,0,0,0,0,0,0,0,0,0,0,0,0,0,0,0,0,0,0,0,0,0,0,66,0,0,0,0,30,0,
110,31,0,0,0,0,0,0,0,0,0,0,0,0,0,0,0,0,0,0,0,0,0,0,0,0,0,0,0,31,0,
0,6,0,0,0,0,0,0,30,31,30,31,30,31,0,0,0,0,0,0,0,0,0,0,0,0,0,0,0,30,0,
0,0,130,0,0,0,0,0,0,0,0,0,31,30,0,0,0,0,0,71,0,0,0,0,0,0,0,0,0,0,0,
0,0,0,0,0,0,0,0,0,0,0,0,30,31,0,0,0,0,0,0,0,0,0,0,0,0,0,0,0,0,0,
0,0,0,0,0,0,0,0,0,0,0,0,31,30,0,0,0,0,0,0,0,0,0,0,0,0,0,0,0,0,0,
0,0,0,0,0,0,0,0,0,0,0,0,0,0,0,35,0,0,0,0,0,0,0,0,0,127,0,0,0,0,0,
0,0,0,0,0,0,0,0,0,0,0,0,0,0,0,55,0,0,0,0,0,0,0,0,0,0,0,0,0,0,0,
0,0,0,0,0,0,0,0,0,0,0,0,0,0,0,55,0,0,0,133,0,0,0,0,0,0,0,0,0,0,0,
29,0,0,0,0,109,0,0,0,0,0,0,0,0,0,55,0,0,0,0,0,0,0,0,0,0,0,0,0,0,0,
0,0,0,0,0,129,109,0,52,0,0,0,52,0,0,55,0,0,0,0,0,0,0,0,0,0,133,0,0,0,0,
0,0,0,31,30,129,129,0,72,134,0,127,72,130,0,75,0,0,127,0,0,69,69,0,0,0,0,0,0,0,0,
0,0,0,0,0,0,0,0,0,0,0,0,0,0,0,0,0,0,0,0,0,0,0,0,0,0,0,0,0,0,0,
0,0,0,0,0,0,0,0,0,0,0,0,0,0,0,0,0,30,0,0,0,0,0,0,0,0,70,31,30,31,70,
0,0,0,0,0,0,0,0,0,0,0,0,0,0,0,0,0,0,25,26,0,0,0,0,0,0,90,0,31,0,90,
0,0,0,0,0,0,0,0,0,0,0,0,0,0,0,0,0,0,0,0,0,0,0,0,0,0,110,0,30,0,110,
0,0,0,0,0,0,0,0,0,0,0,0,0,0,0,0,0,0,0,0,0,86,30,0,0,0,0,0,0,0,0,
0,0,0,0,0,0,0,0,0,0,31,0,0,0,0,0,0,0,0,0,0,0,0,0,0,0,70,0,31,0,70,
0,0,0,0,0,0,0,0,0,0,0,0,0,0,0,0,0,0,0,0,0,0,0,0,0,0,90,0,30,0,90,
0,0,0,0,0,0,0,0,0,0,0,0,0,0,0,0,0,0,0,30,0,0,0,0,0,0,110,0,31,0,110,
0,18,19,19,19,20,0,0,0,0,0,0,0,0,0,0,0,0,0,0,0,0,0,0,0,0,0,0,0,0,0,
0,38,39,39,39,40,0,0,0,0,0,0,0,0,0,0,0,0,0,0,0,0,0,0,0,0,70,0,30,0,70,
0,58,59,98,59,60,0,0,0,0,0,0,0,0,0,36,0,0,0,0,0,0,87,0,0,0,90,0,31,0,90,
0,0,0,139,140,0,0,0,0,0,0,31,0,0,0,56,0,0,0,0,0,0,0,0,0,0,110,0,30,0,110,
0,0,0,97,31,0,0,0,0,0,0,0,0,0,0,56,0,0,0,0,0,0,0,0,0,0,0,0,0,0,0,
30,0,99,118,100,0,0,0,0,0,0,0,0,0,0,56,0,0,0,0,0,30,0,0,0,0,0,0,0,0,0,
37,0,0,138,0,0,0,87,0,127,0,0,0,89,0,76,0,0,0,88,88,86,87,88,0,0,0,5,0,134,0,
0,0,0,0,0,0,0,0,0,0,0,0,0,0,0,34,0,0,0,0,0,0,0,0,0,0,0,0,0,0,0
</data>
 </layer>
 <layer id="2" name="tiles" width="31" height="31">
  <data encoding="csv">
0,0,0,0,0,0,0,0,0,0,0,0,0,0,0,114,95,0,0,0,0,0,0,0,0,0,0,0,0,0,0,
0,0,0,0,0,0,0,0,0,0,0,0,0,0,0,94,115,0,0,0,0,0,0,0,0,0,0,0,0,0,0,
0,0,0,0,0,0,0,0,0,0,0,0,0,0,0,114,95,0,0,0,0,0,0,0,0,0,0,0,0,0,0,
0,0,0,132,48,48,132,0,0,0,0,0,0,132,0,94,115,0,62,63,64,0,0,0,0,0,0,0,0,0,0,
0,0,0,0,0,0,0,0,0,0,0,0,0,0,0,114,95,0,82,83,84,0,0,0,0,0,0,0,0,0,0,
65,0,0,0,0,0,0,0,0,0,0,0,0,0,0,94,115,0,102,103,104,0,0,42,43,44,0,0,0,0,0,
65,65,0,0,0,0,0,0,132,132,132,132,0,0,0,114,95,0,0,0,0,0,0,0,0,0,0,0,0,0,0,
65,65,65,0,0,0,0,0,0,0,0,0,0,0,0,94,115,0,0,0,0,0,0,0,0,0,0,0,42,43,44,
0,0,0,0,0,0,0,0,0,0,0,0,0,0,0,136,0,0,0,0,0,0,0,0,0,0,0,0,0,0,0,
0,0,0,0,0,132,132,0,0,0,132,132,132,132,0,0,0,0,0,0,0,0,0,0,0,0,0,0,0,0,0,
0,0,0,0,0,0,0,0,0,0,0,0,0,0,0,0,0,0,0,0,0,0,0,42,43,44,0,0,0,0,0,
0,0,0,0,0,0,0,0,0,0,0,0,0,0,0,0,0,0,0,0,0,0,0,0,0,0,0,0,0,0,0,
0,0,0,132,132,0,0,0,0,0,0,0,0,0,0,0,0,0,42,43,44,0,0,0,0,0,0,0,0,0,0,
0,0,0,0,0,0,0,0,0,0,0,0,0,0,0,0,0,0,0,0,0,0,0,0,0,0,0,0,0,0,0,
0,0,0,0,0,0,0,0,0,0,0,0,0,0,0,0,0,0,0,0,0,0,0,0,0,0,61,9,9,9,61,
121,12,12,122,123,123,123,123,123,123,123,123,123,123,124,48,43,43,43,43,43,43,43,43,43,43,104,11,11,11,101,
101,12,12,102,103,103,103,103,103,103,103,103,103,103,104,114,95,0,0,0,0,0,0,0,0,0,0,0,0,0,0,
0,0,0,0,0,0,0,0,0,0,0,0,0,0,0,94,115,0,0,0,0,0,0,0,0,0,0,0,0,0,0,
0,0,0,0,0,0,0,0,0,0,0,0,0,0,0,114,95,0,105,106,107,0,0,0,0,0,0,0,0,0,0,
105,106,107,0,0,0,0,0,0,0,0,0,0,0,0,94,115,0,0,0,0,0,0,0,0,0,49,50,50,50,51,
0,0,0,0,105,106,107,0,0,0,0,0,0,0,0,114,95,0,0,0,0,2,4,0,0,0,0,0,0,0,0,
0,0,0,0,0,0,0,0,0,2,3,4,0,0,0,94,115,0,0,0,0,0,0,0,0,0,0,0,0,0,0,
0,0,0,0,0,0,0,0,0,0,0,0,0,0,0,114,95,0,0,0,0,0,0,0,0,0,0,0,0,0,0,
0,0,0,0,0,0,0,0,0,0,0,0,0,0,0,94,115,0,2,4,0,0,0,0,0,0,49,50,50,50,51,
0,0,0,0,0,0,0,0,0,0,0,0,0,48,0,136,0,0,0,0,0,0,0,0,0,0,0,0,0,0,0,
0,0,0,0,0,0,0,0,0,0,0,0,0,0,0,0,0,0,0,0,0,0,0,0,0,0,0,0,0,0,0,
0,0,0,0,0,0,0,0,0,0,0,0,0,0,0,0,0,0,0,0,0,2,4,0,0,0,0,0,0,0,0,
0,0,0,0,0,0,0,0,0,0,2,3,4,0,0,0,0,0,0,0,0,0,0,0,0,0,49,50,50,50,51,
0,0,0,0,0,0,0,0,0,0,0,0,0,0,0,0,0,0,0,0,0,0,0,0,0,0,0,0,0,0,0,
0,0,0,0,0,0,0,0,0,0,0,0,0,0,0,0,0,0,0,0,0,0,0,0,0,0,0,0,0,0,0,
22,23,23,23,23,23,23,23,23,23,23,23,23,23,24,0,22,23,23,23,23,23,23,23,23,23,23,23,23,23,24
</data>
 </layer>
</map>
