<?xml version="1.0" encoding="UTF-8"?>
<map version="1.10" tiledversion="1.12.2-2-geb83ddb9" orientation="orthogonal" renderorder="left-down" width="18" height="20" tilewidth="18" tileheight="18" infinite="0" nextlayerid="3" nextobjectid="1">
 <properties>
  <property name="storm" value="80"/>
 </properties>
 <tileset firstgid="1" source="tilemap.tsx"/>
 <layer id="1" name="chars" width="18" height="20">
  <data encoding="csv">
30,30,0,0,0,0,0,25,26,0,0,0,0,0,0,0,30,0,
30,0,0,0,0,0,0,5,0,0,0,0,0,0,0,30,0,30,
30,30,134,0,0,0,0,0,0,0,0,0,30,0,0,30,66,30,
0,30,0,30,0,0,0,0,0,0,0,30,0,0,0,30,0,30,
30,30,0,0,0,0,0,0,0,0,0,0,0,0,0,0,30,0,
0,0,0,0,30,0,0,0,0,0,30,0,0,0,0,0,0,0,
0,0,31,0,0,0,0,0,0,0,0,0,0,0,0,0,0,0,
0,31,0,31,0,0,0,0,0,0,0,0,0,0,0,0,0,0,
0,31,31,31,0,0,30,30,30,0,0,0,0,0,36,0,0,0,
0,31,0,31,0,0,0,30,0,0,0,0,109,0,76,30,0,0,
0,31,0,31,0,0,0,30,0,69,69,69,129,0,34,0,0,0,
0,0,0,0,0,0,0,0,0,0,0,0,0,0,0,0,30,31,
30,0,0,0,30,0,0,0,30,0,0,0,30,0,0,0,31,30,
29,30,0,30,0,30,0,30,0,30,0,30,0,30,0,0,30,31,
0,0,30,0,0,0,30,0,134,0,30,0,0,0,30,0,31,30,
0,0,0,0,0,0,0,0,0,0,0,0,0,0,0,0,30,31,
0,0,0,0,0,35,31,0,0,0,31,35,0,0,0,0,0,0,
0,0,0,0,0,55,0,31,6,31,0,55,0,0,0,0,0,0,
0,0,0,127,0,75,31,30,0,30,31,75,0,0,127,0,0,0,
0,0,0,0,0,0,0,0,0,0,0,0,0,0,0,0,0,0
</data>
 </layer>
 <layer id="2" name="tiles" width="18" height="20">
  <data encoding="csv">
0,0,0,0,0,0,0,0,0,0,0,0,0,0,0,0,0,0,
0,0,0,0,0,0,0,0,0,0,0,0,0,0,0,0,0,0,
0,0,0,0,0,61,0,0,0,61,0,0,0,0,0,0,0,0,
0,0,21,0,0,81,0,0,0,81,0,0,21,0,0,0,0,0,
0,0,81,0,0,101,0,0,0,101,0,0,81,0,0,0,0,0,
0,0,101,0,0,0,0,0,0,0,0,0,101,0,0,121,0,0,
0,0,0,0,0,0,0,0,0,0,0,0,0,0,0,81,0,0,
0,0,0,0,0,0,49,50,51,0,0,0,0,0,94,101,9,9,
0,0,0,0,0,0,0,0,0,0,0,0,0,0,0,0,0,0,
0,0,0,0,0,0,0,0,0,0,0,0,0,0,0,0,0,0,
0,0,0,0,0,0,0,0,0,0,0,0,0,21,0,21,0,0,
132,132,11,11,11,132,132,132,132,2,3,3,3,103,103,104,0,0,
0,0,0,0,0,0,0,0,0,0,0,0,0,0,0,0,0,0,
0,0,0,0,0,0,0,0,0,0,0,0,0,0,0,0,0,0,
0,0,0,0,0,0,0,0,0,0,0,0,0,0,0,0,0,0,
12,12,49,50,51,94,111,112,112,112,113,95,49,50,51,0,0,0,
0,0,0,0,0,0,0,0,0,0,0,0,0,0,0,0,0,0,
0,0,0,0,0,0,0,0,0,0,0,0,0,0,0,0,0,0,
65,65,0,0,0,0,0,0,61,0,0,0,0,0,0,0,65,65,
65,65,65,65,48,114,112,113,101,111,112,115,48,65,65,65,65,65
</data>
 </layer>
</map>
