<?xml version="1.0" encoding="UTF-8"?>
<map version="1.0" tiledversion="1.0.3" orientation="orthogonal" renderorder="left-down" width="30" height="10" tilewidth="18" tileheight="18" nextobjectid="1">
 <properties>
  <property name="desc" value="Red Level"/>
  <property name="storm" value="120"/>
 </properties>
 <tileset firstgid="1" source="tilemap.tsx"/>
 <layer name="chars" width="30" height="10">
  <data encoding="csv">
0,0,0,0,0,0,0,0,0,0,0,0,0,0,105,106,107,0,0,0,0,70,0,0,0,0,0,29,33,0,
0,0,0,0,0,0,0,0,0,0,0,0,0,0,0,0,0,0,0,0,0,90,0,31,30,31,30,0,53,0,
0,0,0,0,0,0,0,0,0,0,0,0,0,30,31,30,31,30,0,0,0,90,52,30,0,0,31,128,73,6,
0,0,0,0,0,0,0,0,0,15,13,16,0,0,0,0,0,0,0,0,0,110,72,0,0,0,0,0,0,0,
0,0,0,0,0,0,0,0,0,30,53,31,0,0,130,0,127,0,0,0,0,0,0,0,31,30,0,0,0,0,
0,0,0,0,0,0,0,0,0,0,73,0,0,0,0,0,0,0,0,0,0,0,0,0,30,31,0,0,0,0,
0,0,0,0,0,15,13,16,0,0,0,0,0,0,0,0,0,91,92,93,0,0,0,0,0,0,0,0,0,0,
0,5,0,0,0,31,73,30,0,0,0,0,91,93,0,0,0,0,0,0,0,0,0,0,25,26,0,0,0,0,
0,0,130,0,0,0,0,0,0,0,0,0,0,0,0,0,0,0,0,0,0,0,0,0,0,0,0,0,0,0,
0,0,0,34,34,0,0,0,54,54,54,54,54,54,54,54,54,54,54,54,54,54,54,54,54,54,54,54,54,54
</data>
 </layer>
 <layer name="tiles" width="30" height="10">
  <data encoding="csv">
0,0,0,0,0,0,0,0,0,0,0,0,0,0,0,0,0,0,0,0,0,0,0,0,0,0,0,0,0,0,
0,0,0,0,0,0,0,0,0,0,0,0,0,0,0,0,0,0,0,0,0,0,0,0,0,0,0,0,0,0,
0,0,0,0,0,0,0,0,0,0,0,0,0,0,0,0,0,0,0,0,0,0,0,0,0,0,0,0,0,0,
0,0,0,0,0,0,0,0,0,0,0,0,0,0,0,0,0,0,0,0,0,0,0,0,0,0,0,122,123,124,
0,0,0,0,0,0,0,0,0,0,0,0,0,0,0,0,0,0,0,0,122,123,124,0,0,0,0,82,83,84,
0,0,0,0,0,0,0,0,0,0,0,0,0,0,122,123,124,0,0,0,82,83,84,0,0,0,0,82,83,84,
0,0,0,0,0,0,0,0,0,122,123,124,0,0,82,83,84,0,0,0,102,103,104,9,9,9,9,102,103,104,
0,0,0,0,0,0,0,0,0,82,83,84,0,0,102,103,104,0,0,0,0,96,0,0,0,0,0,0,96,0,
0,0,0,0,0,122,123,124,0,102,103,104,0,0,0,0,0,0,0,0,0,116,0,49,50,50,51,0,116,0,
122,123,124,0,0,82,83,84,0,0,0,0,0,0,0,0,0,0,0,0,0,0,0,0,0,0,0,0,0,0
</data>
 </layer>
</map>
