<?xml version="1.0" encoding="UTF-8"?>
<map version="1.10" tiledversion="1.12.2-2-geb83ddb9" orientation="orthogonal" renderorder="left-down" width="20" height="18" tilewidth="18" tileheight="18" infinite="0" nextlayerid="3" nextobjectid="1">
 <properties>
  <property name="storm" value="60"/>
 </properties>
 <tileset firstgid="1" source="tilemap.tsx"/>
 <layer id="1" name="chars" width="20" height="18">
  <data encoding="csv">
0,52,0,0,0,32,0,0,0,0,0,0,0,0,0,55,0,0,0,0,
0,0,30,31,0,0,0,0,0,0,0,0,66,0,0,75,0,0,0,0,
0,0,0,0,0,0,0,0,0,0,0,0,0,31,30,0,30,31,0,0,
0,70,0,0,70,0,0,0,0,134,30,0,0,30,31,0,0,30,31,0,
0,90,0,0,90,0,0,0,0,0,0,0,35,0,0,0,0,0,0,0,
0,110,0,0,110,0,0,0,0,25,26,0,55,0,0,0,0,0,30,31,
0,0,0,0,0,0,6,0,0,30,31,30,75,0,0,0,0,30,31,0,
0,29,0,0,0,0,0,0,0,0,0,0,0,30,31,0,0,0,0,0,
0,0,0,0,0,0,0,0,0,134,5,0,0,0,0,0,30,31,0,0,
0,0,0,0,0,0,6,0,0,0,0,0,0,31,30,0,0,30,31,0,
0,0,108,0,0,0,0,0,0,0,0,0,0,0,0,0,0,0,0,0,
0,0,0,134,0,0,31,0,0,134,0,127,0,30,31,0,0,0,30,31,
0,0,0,0,0,0,30,0,0,0,0,0,0,0,0,0,0,0,0,0,
0,30,31,30,35,0,31,0,35,0,0,0,0,31,30,0,0,0,0,134,
31,6,30,31,56,0,6,0,56,0,0,6,0,30,31,0,0,0,0,0,
0,0,0,0,55,0,0,0,55,0,0,0,0,31,30,0,30,31,0,0,
0,0,0,0,75,0,0,0,75,0,0,0,0,0,134,0,0,0,0,0,
54,54,54,54,54,54,54,54,54,54,54,54,54,0,0,0,34,34,34,34
</data>
 </layer>
 <layer id="2" name="tiles" width="20" height="18">
  <data encoding="csv">
0,0,0,0,0,0,0,0,0,0,0,0,0,0,0,0,0,0,0,0,
94,95,0,0,94,95,0,0,0,0,0,0,0,0,0,0,0,0,0,0,
114,115,12,12,114,115,0,0,0,0,0,94,95,0,0,96,0,0,111,112,
0,0,0,0,0,0,0,0,0,0,0,116,136,0,0,116,0,0,0,0,
0,0,0,0,0,0,0,0,94,112,112,115,0,0,0,116,0,0,0,0,
0,0,0,0,0,0,0,0,116,0,0,0,0,0,0,116,49,51,0,0,
111,112,95,94,112,113,0,0,116,0,0,0,0,0,0,116,0,0,0,0,
0,0,96,116,0,0,0,0,116,0,0,0,96,0,0,116,0,0,0,0,
0,0,116,136,0,0,0,0,116,0,0,0,116,0,0,116,0,0,111,112,
0,0,136,114,112,113,0,0,114,112,112,112,115,0,0,116,0,0,0,0,
0,0,0,0,0,0,0,0,0,0,0,0,0,0,0,116,0,0,0,0,
0,0,0,0,0,0,0,0,0,0,0,0,0,0,0,114,112,113,0,0,
113,11,11,111,95,0,0,0,94,112,112,112,112,112,112,95,0,0,0,0,
0,0,0,0,0,0,0,0,0,0,0,0,0,0,0,116,0,0,0,0,
0,0,0,0,0,0,0,0,0,0,0,0,0,0,0,116,9,9,47,47,
132,132,132,0,0,132,132,132,0,0,132,132,132,0,0,116,0,0,0,94,
0,0,0,0,0,0,0,0,0,0,0,0,0,48,0,116,47,47,0,114,
0,0,0,0,0,0,0,0,0,0,0,0,0,48,94,115,0,0,0,0
</data>
 </layer>
</map>
